www/assets/images/test_icons/flags/AO.svg

<svg fill="none" height="15" viewBox="0 0 21 15" width="21" xmlns="http://www.w3.org/2000/svg" xmlns:xlink="http://www.w3.org/1999/xlink"><mask id="a" height="15" maskUnits="userSpaceOnUse" width="21" x="0" y="0"><path d="m19 0h-17c-1.10457 0-2 .89543-2 2v11c0 1.1046.89543 2 2 2h17c1.1046 0 2-.8954 2-2v-11c0-1.10457-.8954-2-2-2z" fill="#fff"/></mask><g mask="url(#a)"><path d="m19 0h-17c-1.10457 0-2 .89543-2 2v11c0 1.1046.89543 2 2 2h17c1.1046 0 2-.8954 2-2v-11c0-1.10457-.8954-2-2-2z" fill="#d0091e"/><path clip-rule="evenodd" d="m0 8h21v7h-21z" fill="#000" fill-rule="evenodd"/><path clip-rule="evenodd" d="m13.31 9.58601c.434-.582.69-1.304.69-2.086 0-1.467-.903-2.723-2.183-3.244l-.605.847c1.034.307 1.788 1.264 1.788 2.397 0 .594-.207 1.14-.553 1.568l-3.44699-2.068 2.69599 2.696c-.355.194-.763.30399-1.196.30399-.83999 0-1.58299-.41399-2.03599-1.04999l-.605.847c.641.73699 1.586 1.20299 2.64099 1.20299.71 0 1.372-.212 1.924-.576l.576.576 1-1zm-4.30999-4.586h.99999v1h-.99999z" fill="#fad800" fill-rule="evenodd"/><path d="m19 .5h-17c-.82843 0-1.5.67157-1.5 1.5v11c0 .8284.67157 1.5 1.5 1.5h17c.8284 0 1.5-.6716 1.5-1.5v-11c0-.82843-.6716-1.5-1.5-1.5z" stroke="#000" stroke-opacity=".1"/></g></svg>

<svg width="21" height="15" viewBox="0 0 21 15" fill="none" xmlns="http://www.w3.org/2000/svg">
<mask id="mask0_3_207" style="mask-type:alpha" maskUnits="userSpaceOnUse" x="0" y="0" width="21" height="15">
<path d="M19 0H2C0.89543 0 0 0.89543 0 2V13C0 14.1046 0.89543 15 2 15H19C20.1046 15 21 14.1046 21 13V2C21 0.89543 20.1046 0 19 0Z" fill="white"/>
</mask>
<g mask="url(#mask0_3_207)">
<path d="M19 0H2C0.89543 0 0 0.89543 0 2V13C0 14.1046 0.89543 15 2 15H19C20.1046 15 21 14.1046 21 13V2C21 0.89543 20.1046 0 19 0Z" fill="#D0091E"/>
<path fill-rule="evenodd" clip-rule="evenodd" d="M0 8H21V15H0V8Z" fill="black"/>
<path fill-rule="evenodd" clip-rule="evenodd" d="M13.31 9.58601C13.744 9.00401 14 8.28201 14 7.50001C14 6.03301 13.097 4.77701 11.817 4.25601L11.212 5.10301C12.246 5.41001 13 6.36701 13 7.50001C13 8.09401 12.793 8.64001 12.447 9.06801L9.00001 7.00001L11.696 9.69601C11.341 9.89001 10.933 10 10.5 10C9.66001 10 8.91701 9.58601 8.46401 8.95001L7.85901 9.79701C8.50001 10.534 9.44501 11 10.5 11C11.21 11 11.872 10.788 12.424 10.424L13 11L14 10L13.31 9.58601ZM9.00001 5.00001H10V6.00001H9.00001V5.00001Z" fill="#FAD800"/>
<path d="M19 0.5H2C1.17157 0.5 0.5 1.17157 0.5 2V13C0.5 13.8284 1.17157 14.5 2 14.5H19C19.8284 14.5 20.5 13.8284 20.5 13V2C20.5 1.17157 19.8284 0.5 19 0.5Z" stroke="black" stroke-opacity="0.1"/>
</g>
</svg>
